svg/u1f9d1_1f3fd_200d_1f9b1.svg

<svg viewBox="0 0 128 128" xmlns="http://www.w3.org/2000/svg">
  <path id="hair_1_" d="M109.01,37.96c-0.35-3.54-2.76-4.8-2.76-4.8c2.41-4.52,1.35-7.88-3.19-10.08 c0.53-5.27-1.78-7.98-6.52-8.58c-1.17-5.06-4.24-7.01-8.95-5.73c-2.57-4.33-6.05-5.26-10.36-2.8c-3.72-4.21-8.96-5.34-13.25-0.67v0 c0,0,0,0,0,0c0,0,0,0,0,0v0c-4.29-4.68-9.53-3.54-13.25,0.67c-4.31-2.46-7.79-1.53-10.36,2.8c-4.71-1.28-7.78,0.66-8.95,5.73 c-4.74,0.6-7.05,3.31-6.52,8.58c-4.54,2.2-5.61,5.57-3.19,10.09c0,0-2.4,1.26-2.76,4.8c-0.34,3.44,1.91,5.92,1.91,5.92 c-2.88,3.54-1.94,7.25,1.56,9.82c0,0-2.31,7.39,5.8,9.43c0,0,0.06,6.38,5.76,7.11v-3.01c-2.05-0.37-2.78-2.33-2.79-4.27 c0.31,0.06,0.62,0.11,0.96,0.16c0.21-0.39,57.02-1.29,64.52-1.46c0.35,2.27-0.19,5.12-2.7,5.58v3.01c5.71-0.74,5.76-7.11,5.76-7.11 c8.11-2.04,5.8-9.43,5.8-9.43c3.5-2.57,4.44-6.28,1.56-9.82C107.11,43.88,109.36,41.4,109.01,37.96z" fill="#543930"/>
  <g id="shirt_3_">
    <g id="shirt">
      <linearGradient id="SVGID_1_" gradientTransform="matrix(1 0 0 -1 0 130)" gradientUnits="userSpaceOnUse" x1="64" x2="64" y1="35.7586" y2="7.9996">
        <stop offset="0" stop-color="#F78C1F"/>
        <stop offset="1" stop-color="#ED6D23"/>
      </linearGradient>
      <path d="M114.39,119.89v4.07H13.61v-4.07c0-12.39,12.12-19.81,27.92-23.2 c7.01-1.52,14.75-2.23,22.47-2.24h0.12c7.66,0,15.31,0.79,22.24,2.37C102.25,100.42,114.39,108.14,114.39,119.89z" fill="url(#SVGID_1_)"/>
    </g>
  </g>
  <path id="neck_2_" d="M72.89,90.06H55.1v9.98c0,4.51,3.62,8.17,8.09,8.17h1.62c4.46,0,8.09-3.66,8.09-8.17 L72.89,90.06L72.89,90.06z" fill="#99674F"/>
  <g id="face_3_">
    <path id="ears" d="M36.67,72.24c-5.36,0-9.71-4.67-9.71-10.41s4.36-10.41,9.71-10.41h54.65 c5.36,0,9.71,4.67,9.71,10.41s-4.36,10.41-9.71,10.41H36.67z" fill="#99674F"/>
    <g id="head_1_">
      <path id="head" d="M64,10.34c-21.36,0-33.52,18.61-33.52,45.4c0,26.64,16.61,39.81,33.52,39.81 s33.52-13.17,33.52-39.81C97.52,28.95,85.36,10.34,64,10.34z" fill="#BA8D68"/>
    </g>
    <g id="eyebrows_3_">
      <path d="M54.6,49.8c-0.93-1.23-3.07-3.01-7.23-3.01s-6.31,1.79-7.23,3.01c-0.41,0.54-0.31,1.17-0.02,1.55 c0.26,0.35,1.04,0.68,1.9,0.39s2.54-1.16,5.35-1.18c2.81,0.02,4.49,0.89,5.35,1.18s1.64-0.03,1.9-0.39 C54.9,50.97,55.01,50.34,54.6,49.8z" fill="#613E31"/>
      <path d="M87.86,49.8c-0.93-1.23-3.07-3.01-7.23-3.01s-6.31,1.79-7.23,3.01c-0.41,0.54-0.31,1.17-0.02,1.55 c0.26,0.35,1.04,0.68,1.9,0.39s2.54-1.16,5.35-1.18c2.81,0.02,4.49,0.89,5.35,1.18s1.64-0.03,1.9-0.39 C88.17,50.97,88.27,50.34,87.86,49.8z" fill="#613E31"/>
    </g>
    <g id="eyes_3_">
      <ellipse cx="47.37" cy="58.8" fill="#49362E" rx="4.93" ry="5.1"/>
      <ellipse cx="80.63" cy="58.8" fill="#49362E" rx="4.93" ry="5.1"/>
    </g>
    <path id="nose_3_" d="M67.85,68.04c-0.11-0.04-0.21-0.07-0.32-0.08h-7.07c-0.11,0.01-0.22,0.04-0.32,0.08 c-0.64,0.26-0.99,0.92-0.69,1.63s1.71,2.69,4.55,2.69c2.84,0,4.25-1.99,4.55-2.69C68.85,68.96,68.49,68.3,67.85,68.04z" fill="#99674F"/>
    <path id="mouth_3_" d="M72.42,76.13c-3.19,1.89-13.63,1.89-16.81,0c-1.83-1.09-3.7,0.58-2.94,2.24 c0.75,1.63,6.45,5.42,11.37,5.42S74.58,80,75.33,78.37C76.09,76.7,74.24,75.04,72.42,76.13z" fill="#5D4037"/>
  </g>
  <path id="hair" d="M97.11,62.83c0,0,2.59-6.19,4.24-11.74c1.07-3.62,1.57-7.71,1.46-7.81 c4.53-3.23,4.08-6.69-1.14-8.87c3.82-4.4,3.58-7.74-2.18-8.94c1.59-5.86-0.33-8.69-6.1-7.5c0.34-6.34-2.35-8.03-7.71-5.14 c0,0-0.15-4.12-2.83-5.09c-2.69-0.97-6.42,2.13-6.42,2.13C72.63,4.2,68.32,4.29,64,9.74v0c0,0,0,0,0,0c0,0,0,0,0,0V9.73 c-4.32-5.44-8.63-5.53-12.42,0.14c0,0-3.73-3.1-6.42-2.13c-2.69,0.97-2.83,5.09-2.83,5.09c-5.37-2.89-8.05-1.2-7.71,5.14 c-5.77-1.19-7.69,1.64-6.1,7.5c-5.75,1.2-6,4.54-2.18,8.94c-5.23,2.18-4.89,5.3-0.37,8.47c2.09,1.47,1.81,5.64,2.57,8.97 c1.94,8.48,2.66,10.57,2.66,10.57s2.59-2.72,2.97-4.46c0.38-1.75,0.89-4.51-0.17-5.96c3.49-2.68,2.18-7.24,2.18-7.24 s3.1-0.63,4.85-3.46c0.78-1.26,1.22-1.91,2.56-1.32c1.05,0.47,2.13,0.76,3.29,0.76c2.68,0,5.04-1.4,6.42-3.52 c0.96,0.55,2.07,0.87,3.25,0.87c2.97,0,5.48-1.97,6.37-4.7c1.23,1.5,3.07,2.45,5.14,2.45c0.87,0,1.69-0.18,2.46-0.49 c0,0,0.81,4.66,7.06,4.36c4.59-0.21,6.05-3.02,6.05-3.02s1.18,2.42,3.3,3.16s3.79,0.41,3.79,0.41s-1.13,5.66,4.38,8.8 c0,0-1.5,3.56-0.68,7.18C95.03,59.04,97.11,62.83,97.11,62.83z" fill="#543930"/>
  <radialGradient id="hairHighlights_1_" cx="63.5818" cy="88.6308" gradientTransform="matrix(1 0 0 -0.8794 0 119.4472)" gradientUnits="userSpaceOnUse" r="48.011">
    <stop offset="0.7974" stop-color="#6D4C41" stop-opacity="0"/>
    <stop offset="0.984" stop-color="#6D4C41"/>
  </radialGradient>
  <path id="hairHighlights" d="M107.11,43.88c2.88,3.54,1.94,7.25-1.56,9.82 c0,0,2.06,6.6-4.56,9.05c0.03-0.3,0.04-0.62,0.04-0.93c0-3.23-1.38-6.12-3.54-8.03C96.92,28.05,84.84,10.34,64,10.34 S31.08,28.05,30.51,53.78c-2.17,1.91-3.55,4.81-3.55,8.04c0,0.31,0.01,0.63,0.04,0.93c-6.64-2.44-4.57-9.05-4.57-9.05 c-3.51-2.57-4.44-6.28-1.56-9.82c0,0-2.25-2.48-1.91-5.92c0.35-3.54,2.75-4.8,2.75-4.8c-2.41-4.52-1.34-7.88,3.2-10.09 c-0.53-5.27,1.77-7.97,6.52-8.58c1.17-5.06,4.24-7.01,8.95-5.73c2.57-4.33,6.05-5.25,10.36-2.8c3.72-4.2,8.95-5.34,13.25-0.67 c4.3-4.67,9.53-3.53,13.25,0.67c4.31-2.45,7.78-1.53,10.36,2.8c4.71-1.28,7.78,0.67,8.95,5.73c4.74,0.61,7.05,3.31,6.52,8.58 c4.54,2.21,5.6,5.57,3.19,10.09c0,0,2.41,1.26,2.76,4.8C109.36,41.4,107.11,43.88,107.11,43.88z" fill="url(#hairHighlights_1_)"/>
</svg>

<svg viewBox="0 0 128 128" xmlns="http://www.w3.org/2000/svg">
  <defs>
    <radialGradient id="hairHighlights_1_" cx="63.5818" cy="-47.197265" gradientTransform="matrix(1 0 0 -0.8794 0 0)" gradientUnits="userSpaceOnUse" r="48.011">
      <stop offset="0.7974" stop-color="#6D4C41" stop-opacity="0"/>
      <stop offset="0.984" stop-color="#6D4C41"/>
    </radialGradient>
    <linearGradient id="SVGID_1_" gradientTransform="matrix(1 0 0 -1 0 0)" gradientUnits="userSpaceOnUse" x1="64" x2="64" y1="-94.2414" y2="-122.0004">
      <stop offset="0" stop-color="#F78C1F"/>
      <stop offset="1" stop-color="#ED6D23"/>
    </linearGradient>
  </defs>
  <path id="hair_1_" d="M109.01,37.96 C108.66,34.42 106.25,33.16 106.25,33.16 C108.66,28.64 107.6,25.28 103.06,23.08 C103.59,17.81 101.28,15.1 96.54,14.5 C95.37,9.44 92.3,7.49 87.59,8.77 C85.02,4.44 81.54,3.51 77.23,5.97 C73.51,1.76 68.27,0.63 63.98,5.3 L63.98,5.3 C63.98,5.3 63.98,5.3 63.98,5.3 C63.98,5.3 63.98,5.3 63.98,5.3 L63.98,5.3 C59.69,0.62 54.45,1.76 50.73,5.97 C46.42,3.51 42.94,4.44 40.37,8.77 C35.66,7.49 32.59,9.43 31.42,14.5 C26.68,15.1 24.37,17.81 24.9,23.08 C20.36,25.28 19.29,28.65 21.71,33.17 C21.71,33.17 19.31,34.43 18.95,37.97 C18.61,41.41 20.86,43.89 20.86,43.89 C17.98,47.43 18.92,51.14 22.42,53.71 C22.42,53.71 20.11,61.1 28.22,63.14 C28.22,63.14 28.28,69.52 33.98,70.25 L33.98,67.24 C31.93,66.87 31.2,64.91 31.19,62.97 C31.5,63.03 31.81,63.08 32.15,63.13 C32.36,62.74 89.17,61.84 96.67,61.67 C97.02,63.94 96.48,66.79 93.97,67.25 L93.97,70.26 C99.68,69.52 99.73,63.15 99.73,63.15 C107.84,61.11 105.53,53.72 105.53,53.72 C109.03,51.15 109.97,47.44 107.09,43.9 C107.11,43.88 109.36,41.4 109.01,37.96 Z" fill="#543930"/>
  <path d="M114.39,119.89 L114.39,123.96 L13.61,123.96 L13.61,119.89 C13.61,107.5 25.73,100.08 41.53,96.69 C48.54,95.17 56.28,94.46 64,94.45 L64.12,94.45 C71.78,94.45 79.43,95.24 86.36,96.82 C102.25,100.42 114.39,108.14 114.39,119.89 Z" fill="url(#SVGID_1_)"/>
  <path id="neck_2_" d="M72.89,90.06 L55.1,90.06 L55.1,100.04 C55.1,104.55 58.72,108.21 63.19,108.21 L64.81,108.21 C69.27,108.21 72.9,104.55 72.9,100.04 L72.89,90.06 L72.89,90.06 Z" fill="#99674F"/>
  <path id="ears" d="M36.67,72.24 C31.31,72.24 26.96,67.57 26.96,61.83 C26.96,56.09 31.32,51.42 36.67,51.42 L91.32,51.42 C96.68,51.42 101.03,56.09 101.03,61.83 C101.03,67.57 96.67,72.24 91.32,72.24 L36.67,72.24 Z" fill="#99674F"/>
  <path id="head" d="M64,10.34 C42.64,10.34 30.48,28.95 30.48,55.74 C30.48,82.38 47.09,95.55 64,95.55 C80.91,95.55 97.52,82.38 97.52,55.74 C97.52,28.95 85.36,10.34 64,10.34 Z" fill="#BA8D68"/>
  <path d="M54.6,49.8 C53.67,48.57 51.53,46.79 47.37,46.79 C43.21,46.79 41.06,48.58 40.14,49.8 C39.73,50.34 39.83,50.97 40.12,51.35 C40.38,51.7 41.16,52.03 42.02,51.74 C42.88,51.45 44.56,50.58 47.37,50.56 C50.18,50.58 51.86,51.45 52.72,51.74 C53.58,52.03 54.36,51.71 54.62,51.35 C54.9,50.97 55.01,50.34 54.6,49.8 Z" fill="#613E31"/>
  <path d="M87.86,49.8 C86.93,48.57 84.79,46.79 80.63,46.79 C76.47,46.79 74.32,48.58 73.4,49.8 C72.99,50.34 73.09,50.97 73.38,51.35 C73.64,51.7 74.42,52.03 75.28,51.74 C76.14,51.45 77.82,50.58 80.63,50.56 C83.44,50.58 85.12,51.45 85.98,51.74 C86.84,52.03 87.62,51.71 87.88,51.35 C88.17,50.97 88.27,50.34 87.86,49.8 Z" fill="#613E31"/>
  <path d="M52.3,58.8 A4.93 5.1 0 1 1 42.44,58.8 A4.93 5.1 0 1 1 52.3,58.8 Z" fill="#49362E"/>
  <path d="M85.56,58.8 A4.93 5.1 0 1 1 75.7,58.8 A4.93 5.1 0 1 1 85.56,58.8 Z" fill="#49362E"/>
  <path id="nose_3_" d="M67.85,68.04 C67.74,68 67.64,67.97 67.53,67.96 L60.46,67.96 C60.35,67.97 60.24,68 60.14,68.04 C59.5,68.3 59.15,68.96 59.45,69.67 C59.75,70.38 61.16,72.36 64,72.36 C66.84,72.36 68.25,70.37 68.55,69.67 C68.85,68.96 68.49,68.3 67.85,68.04 Z" fill="#99674F"/>
  <path id="mouth_3_" d="M72.42,76.13 C69.23,78.02 58.79,78.02 55.61,76.13 C53.78,75.04 51.91,76.71 52.67,78.37 C53.42,80 59.12,83.79 64.04,83.79 C68.96,83.79 74.58,80 75.33,78.37 C76.09,76.7 74.24,75.04 72.42,76.13 Z" fill="#5D4037"/>
  <path id="hair" d="M97.11,62.83 C97.11,62.83 99.7,56.64 101.35,51.09 C102.42,47.47 102.92,43.38 102.81,43.28 C107.34,40.05 106.89,36.59 101.67,34.41 C105.49,30.01 105.25,26.67 99.49,25.47 C101.08,19.61 99.16,16.78 93.39,17.97 C93.73,11.63 91.04,9.94 85.68,12.83 C85.68,12.83 85.53,8.71 82.85,7.74 C80.16,6.77 76.43,9.87 76.43,9.87 C72.63,4.2 68.32,4.29 64,9.74 L64,9.74 C64,9.74 64,9.74 64,9.74 C64,9.74 64,9.74 64,9.74 L64,9.73 C59.68,4.29 55.37,4.2 51.58,9.87 C51.58,9.87 47.85,6.77 45.16,7.74 C42.47,8.71 42.33,12.83 42.33,12.83 C36.96,9.94 34.28,11.63 34.62,17.97 C28.85,16.78 26.93,19.61 28.52,25.47 C22.77,26.67 22.52,30.01 26.34,34.41 C21.11,36.59 21.45,39.71 25.97,42.88 C28.06,44.35 27.78,48.52 28.54,51.85 C30.48,60.33 31.2,62.42 31.2,62.42 C31.2,62.42 33.79,59.7 34.17,57.96 C34.55,56.21 35.06,53.45 34,52 C37.49,49.32 36.18,44.76 36.18,44.76 C36.18,44.76 39.28,44.13 41.03,41.3 C41.81,40.04 42.25,39.39 43.59,39.98 C44.64,40.45 45.72,40.74 46.88,40.74 C49.56,40.74 51.92,39.34 53.3,37.22 C54.26,37.77 55.37,38.09 56.55,38.09 C59.52,38.09 62.03,36.12 62.92,33.39 C64.15,34.89 65.99,35.84 68.06,35.84 C68.93,35.84 69.75,35.66 70.52,35.35 C70.52,35.35 71.33,40.01 77.58,39.71 C82.17,39.5 83.63,36.69 83.63,36.69 C83.63,36.69 84.81,39.11 86.93,39.85 C89.05,40.59 90.72,40.26 90.72,40.26 C90.72,40.26 89.59,45.92 95.1,49.06 C95.1,49.06 93.6,52.62 94.42,56.24 C95.03,59.04 97.11,62.83 97.11,62.83 Z" fill="#543930"/>
  <path id="hairHighlights" d="M107.11,43.88 C109.99,47.42 109.05,51.13 105.55,53.7 C105.55,53.7 107.61,60.3 100.99,62.75 C101.02,62.45 101.03,62.13 101.03,61.82 C101.03,58.59 99.65,55.7 97.49,53.79 C96.92,28.05 84.84,10.34 64,10.34 C43.16,10.34 31.08,28.05 30.51,53.78 C28.34,55.69 26.96,58.59 26.96,61.82 C26.96,62.13 26.97,62.45 27,62.75 C20.36,60.31 22.43,53.7 22.43,53.7 C18.92,51.13 17.99,47.42 20.87,43.88 C20.87,43.88 18.62,41.4 18.96,37.96 C19.31,34.42 21.71,33.16 21.71,33.16 C19.3,28.64 20.37,25.28 24.91,23.07 C24.38,17.8 26.68,15.1 31.43,14.49 C32.6,9.43 35.67,7.48 40.38,8.76 C42.95,4.43 46.43,3.51 50.74,5.96 C54.46,1.76 59.69,0.62 63.99,5.29 C68.29,0.62 73.52,1.76 77.24,5.96 C81.55,3.51 85.02,4.43 87.6,8.76 C92.31,7.48 95.38,9.43 96.55,14.49 C101.29,15.1 103.6,17.8 103.07,23.07 C107.61,25.28 108.67,28.64 106.26,33.16 C106.26,33.16 108.67,34.42 109.02,37.96 C109.36,41.4 107.11,43.88 107.11,43.88 Z" fill="url(#hairHighlights_1_)"/>
</svg>
